X: 1
T: David Vandegrift - The Grand Marshall
C: by Muriel Johnstone
N: Tune for The Compleat Gardner
S: arr. Barbara McOwen 12-2014
F: From Terry Traub's collection
R: jig
M: 6/8
L: 1/8
K: Dm
|: A, |\
"Dm"DEF "A"E2A | "A7"A,2A "Dm"FED | "Dm"d2d "E7"e2d | "A7"^cAA eAA |\
"Dm"d^cd "D7"D2=c | "Gm"BGG gdB | "A"A2a ge^c | "Dm"d3 d2 :|
f |\
"Dm"d2d "A7"^c=Bc | "Dm"dAF DFA | "Dm"d2d "C7"cdc | "F"AFF cFF |\
"Dm"d^cd "C7"E2=c | "F"AFF fcA | "Gm"G2g "A7"age | "Dm"fdd d2 ||
f |\
"Dm"d2d "A7"^c=Bc | "Dm"dAF DFA | "Dm"d2d "C7"ede | "F"f2f "D7"^fef |\
"Gm"gdd bgg | "Dm"aga fed | "A7"A2a ge^c | "Dm"d3 d2 |]
